icon_installer/data/icons/scalable/actions/show-skull-symbolic.svg

<?xml version="1.0" encoding="UTF-8"?>
<svg height="16px" viewBox="0 0 16 16" width="16px" xmlns="http://www.w3.org/2000/svg">
    <path d="m 7.402344 0.0234375 c -1.199219 0.0898435 -2.363282 0.4492185 -3.402344 1.0507815 c -2.476562 1.425781 -4 4.066406 -4 6.925781 v 4 h 4 v 4 h 2 v -2 h 1 v 2 h 2 v -2 h 1 v 2 h 2 v -4 h 4 v -4 c 0 -2.859375 -1.523438 -5.5 -4 -6.925781 c -1.390625 -0.804688 -2.996094 -1.1718752 -4.597656 -1.0507815 z m -2.902344 6.9765625 h 1 c 0.832031 0 1.5 0.667969 1.5 1.5 s -0.667969 1.5 -1.5 1.5 h -1 c -0.832031 0 -1.5 -0.667969 -1.5 -1.5 s 0.667969 -1.5 1.5 -1.5 z m 6 0 h 1 c 0.832031 0 1.5 0.667969 1.5 1.5 s -0.667969 1.5 -1.5 1.5 h -1 c -0.832031 0 -1.5 -0.667969 -1.5 -1.5 s 0.667969 -1.5 1.5 -1.5 z m -2.5 2 l 1.5 3 h -3 z m 0 0" fill="#222222"/>
</svg>

<svg xmlns="http://www.w3.org/2000/svg" width="16" height="16"><path fill="#222" d="M7.402.023A7.997 7.997 0 0 0 4 1.074 7.988 7.988 0 0 0 0 8v4h4v4h2v-2h1v2h2v-2h1v2h2v-4h4V8c0-2.86-1.523-5.5-4-6.926A7.986 7.986 0 0 0 7.402.024zM4.5 7h1C6.332 7 7 7.668 7 8.5S6.332 10 5.5 10h-1C3.668 10 3 9.332 3 8.5S3.668 7 4.5 7zm6 0h1c.832 0 1.5.668 1.5 1.5s-.668 1.5-1.5 1.5h-1C9.668 10 9 9.332 9 8.5S9.668 7 10.5 7zM8 9l1.5 3h-3zm0 0"/></svg>
